icons/cloud-24.svg

<svg width="24" height="24" viewBox="0 0 24 24" fill="none" xmlns="http://www.w3.org/2000/svg">
<path fill-rule="evenodd" clip-rule="evenodd" d="M3.10345 10.1071C3.10345 5.86349 6.5483 2.5 10.8362 2.5C14.0251 2.5 16.7477 4.35842 17.9346 7.06271C17.9379 7.07018 17.9411 7.0777 17.9441 7.08527L17.9462 7.09057C21.3478 7.34453 24 10.0951 24 13.5357C24 17.1482 21.0762 20 17.431 20H5.01724C2.229 20 0 17.8305 0 15.0595C0 12.9646 1.27705 11.2066 3.11237 10.4788C3.10621 10.348 3.10345 10.2203 3.10345 10.1071ZM10.8362 4C7.35094 4 4.60345 6.71747 4.60345 10.1071C4.60345 10.3914 4.62495 10.7092 4.65457 10.8625C4.72998 11.2528 4.48781 11.6341 4.10252 11.7318C2.5838 12.1168 1.5 13.4443 1.5 15.0595C1.5 16.9765 3.03164 18.5 5.01724 18.5H17.431C20.2736 18.5 22.5 16.2942 22.5 13.5357C22.5 10.7772 20.2736 8.57143 17.431 8.57143C17.1245 8.57143 16.8488 8.38487 16.7348 8.10031L16.5563 7.65471C15.6056 5.50036 13.4243 4 10.8362 4Z" fill="#24292F"/>
</svg>

<svg xmlns="http://www.w3.org/2000/svg" width="24" height="24" viewBox="0 0 24 24"><path d="M0 0h24v24H0z"/><path fill-rule="evenodd" d="M3.103 10.107c0-4.244 3.445-7.607 7.733-7.607 3.19 0 5.912 1.858 7.099 4.563a.634.634 0 01.01.022l.001.006C21.348 7.345 24 10.095 24 13.536 24 17.148 21.076 20 17.431 20H5.017C2.23 20 0 17.83 0 15.06a4.9 4.9 0 013.112-4.581 8.024 8.024 0 01-.009-.372zM10.836 4c-3.485 0-6.233 2.717-6.233 6.107 0 .284.022.602.052.756a.75.75 0 01-.552.869c-1.52.385-2.603 1.712-2.603 3.328 0 1.917 1.532 3.44 3.517 3.44h12.414c2.843 0 5.069-2.206 5.069-4.964 0-2.759-2.226-4.965-5.069-4.965a.75.75 0 01-.696-.47l-.179-.446C15.606 5.5 13.424 4 10.836 4z"/></svg>
